X:1
T: Kitty in the Lane
C:
R:Reel
Q: 232
K:D
M:4/4
L:1/8
A|dA AB =c2 BA|GE EG =c2 Bc|dA AB =c2 BA|GE =cE D3A|
dA AB =c2 BA|GE EG =c2 Bc|dA AB =c2 BA|GE =cE D3A|
dc de f2 ed|cd ef g2 fe|dc de f2 ed|ef ga fd dA|
dc de f2 ed|cd ef g2 fg|af ge fd ec|dB AG FD DA|
dA AB =c2 BA|GE EG =c2 Bc|dA AB =c2 BA|GE =cE D3A|
dA AB =c2 BA|GE EG =c2 Bc|dA AB =c2 BA|GE =cE D3||
